X:1
T:Title
%%score { ( 1 3 ) | ( 2 4 ) }
L:1/8
Q:1/4=72
M:6/8
K:Bb
V:1 treble nm="Grand Piano"
V:3 treble 
V:2 bass 
V:4 bass 
V:1
 [B,D][CE][_D=E] [=DF][DB][_Ec] | [Fd][Ec][DB] [DF]3 | [B,D][CE][_D=E] [=DF][DB][Dc] | %3
w: Chas.~H.~Gabriel * * * * *|||
 [FB][FG][FB] [EA]3 | cGB AEA | GCE D3 | z G,D .B3 |[M:13/16] [=EB]-<[EB]E z D_E3/2 | %8
w: |||||
[M:3/4] [Fd]2 [Ec] [DB]2 [Fc] | [GB]2 [EG] [DF]3 | DE =E F2 F | G[FA] [FB] [Fc]3 | %12
w: ||||
 [Fd][Ec] [DB][Fd] [Ec][DB] | [DF][EG] [F_A] G3 | B2 B .F3 | c2 B [DB]3 |] %16
w: ||||
V:2
 [B,,F,][B,,F,][B,,G,] [B,,B,][B,,B,][B,,B,] | [B,,B,][B,,B,][B,,B,] [B,,B,]3 | %2
 [B,,F,][B,,F,][B,,G,] [B,,B,][B,,B,][B,,B,] | [D,B,][D,B,][_D,B,] [C,F,]3 | %4
 [F,A,E][F,A,E][F,CE] [F,CE][F,A,C][F,CE] | [F,CE][F,A,][F,A,C] [B,,B,]3 | .C3 z3 | %7
[M:13/16] z/ z/ z/ z/ z .[A,C]3/2 z/ z/ z |[M:3/4] [B,,B,]2 [B,,F,] [B,,F,]2 [D,B,] | %9
 [E,E]2 [E,B,] [B,,B,]3 | [B,,F,B,][C,F,A,] [_D,G,B,] [=D,B,]2 [D,B,] | %11
 [E,B,E][E,C] [D,B,] [F,A,]3 | [B,,B,][B,,B,] [B,,F,][B,,B,] [B,,B,][B,,B,] | %13
 [B,,B,][B,,B,] [D,B,] [E,B,E]3 | [=E,G,_D]2 [E,G,D] .[F,B,=D]3 | [F,A,E]2 [F,E] [B,,F,]3 |] %16
V:3
 x6 | x6 | x6 | x6 | x6 | x6 | .D3 z3 |[M:13/16] z/ z/ z/ z/ z F/-F/-F/-F-<F |[M:3/4] x6 | x6 | %10
 x6 | x6 | x6 | x6 | x6 | x6 |] %16
V:4
 x6 | x6 | x6 | x6 | x6 | x6 | [D,^F,]=E,[F,A,C] .[G,B,D]3 | %7
[M:13/16] [C,G,]-<[C,G,][C,B,C]F,-[F,-B,][F,C]3/2 |[M:3/4] x6 | x6 | x6 | x6 | x6 | x6 | x6 | x6 |] %16

